assets/icons/action/description.svg

<?xml version="1.0"?><svg xmlns="http://www.w3.org/2000/svg" width="52" height="52" viewBox="0 0 52 52"><path fill="#fff" d="m44 4h-36c-2.2 0-4 1.8-4 4v36c0 2.2 1.8 4 4 4h36c2.2 0 4-1.8 4-4v-36c0-2.2-1.8-4-4-4z m-32 10c0-0.6 0.4-1 1-1h10c0.6 0 1 0.4 1 1v10c0 0.6-0.4 1-1 1h-10c-0.6 0-1-0.4-1-1v-10z m24 26c0 0.6-0.4 1-1 1h-22c-0.6 0-1-0.4-1-1v-2c0-0.6 0.4-1 1-1h22c0.6 0 1 0.4 1 1v2z m4-8c0 0.6-0.4 1-1 1h-26c-0.6 0-1-0.4-1-1v-2c0-0.6 0.4-1 1-1h26c0.6 0 1 0.4 1 1v2z m0-8c0 0.6-0.4 1-1 1h-10c-0.6 0-1-0.4-1-1v-2c0-0.6 0.4-1 1-1h10c0.6 0 1 0.4 1 1v2z m0-8c0 0.6-0.4 1-1 1h-10c-0.6 0-1-0.4-1-1v-2c0-0.6 0.4-1 1-1h10c0.6 0 1 0.4 1 1v2z"></path></svg>

<svg xmlns="http://www.w3.org/2000/svg" x="0px" y="0px"
	 width="52px" height="52px" viewBox="0 0 52 52" enable-background="new 0 0 52 52" xml:space="preserve">
<path fill="#FFFFFF" d="M44,4H8C5.8,4,4,5.8,4,8v36c0,2.2,1.8,4,4,4h36c2.2,0,4-1.8,4-4V8C48,5.8,46.2,4,44,4z M12,14
	c0-0.6,0.4-1,1-1h10c0.6,0,1,0.4,1,1v10c0,0.6-0.4,1-1,1H13c-0.6,0-1-0.4-1-1V14z M36,40c0,0.6-0.4,1-1,1H13c-0.6,0-1-0.4-1-1v-2
	c0-0.6,0.4-1,1-1h22c0.6,0,1,0.4,1,1V40z M40,32c0,0.6-0.4,1-1,1H13c-0.6,0-1-0.4-1-1v-2c0-0.6,0.4-1,1-1h26c0.6,0,1,0.4,1,1V32z
	 M40,24c0,0.6-0.4,1-1,1H29c-0.6,0-1-0.4-1-1v-2c0-0.6,0.4-1,1-1h10c0.6,0,1,0.4,1,1V24z M40,16c0,0.6-0.4,1-1,1H29
	c-0.6,0-1-0.4-1-1v-2c0-0.6,0.4-1,1-1h10c0.6,0,1,0.4,1,1V16z"/>
</svg>
